src/assets/outline/NoteAdd.svg

<svg width="24" height="24" viewBox="0 0 24 24"  xmlns="http://www.w3.org/2000/svg">
<path d="M9.56006 18.75C9.15006 18.75 8.81006 18.41 8.81006 18V13C8.81006 12.59 9.15006 12.25 9.56006 12.25C9.97006 12.25 10.3101 12.59 10.3101 13V18C10.3101 18.41 9.97006 18.75 9.56006 18.75Z" />
<path d="M12 16.25H7C6.59 16.25 6.25 15.91 6.25 15.5C6.25 15.09 6.59 14.75 7 14.75H12C12.41 14.75 12.75 15.09 12.75 15.5C12.75 15.91 12.41 16.25 12 16.25Z" />
<path d="M8 5.75C7.59 5.75 7.25 5.41 7.25 5V2C7.25 1.59 7.59 1.25 8 1.25C8.41 1.25 8.75 1.59 8.75 2V5C8.75 5.41 8.41 5.75 8 5.75Z" />
<path d="M16 5.75C15.59 5.75 15.25 5.41 15.25 5V2C15.25 1.59 15.59 1.25 16 1.25C16.41 1.25 16.75 1.59 16.75 2V5C16.75 5.41 16.41 5.75 16 5.75Z" />
<path d="M8.85002 22.8097C6.38002 22.8097 4.75002 22.2697 3.73002 21.1097C2.55002 19.7797 2.36001 17.7897 2.32001 16.0197L2.19002 9.84969C2.09002 5.11969 3.66002 3.14969 7.76002 2.83969L15.8 2.67969C15.82 2.67969 15.83 2.67969 15.84 2.67969C19.95 2.81969 21.59 4.71969 21.69 9.45969L21.81 15.6297C21.85 17.3997 21.73 19.3997 20.61 20.7697C19.59 22.0197 17.87 22.6297 15.2 22.6897L9.20001 22.8097C9.08001 22.8097 8.96002 22.8097 8.85002 22.8097ZM15.8 4.16969L7.83001 4.32969C5.03001 4.54969 3.60002 5.44969 3.69002 9.81969L3.82001 15.9897C3.86001 18.1097 4.17001 19.3497 4.85001 20.1197C5.61001 20.9797 6.98001 21.3597 9.18002 21.3097L15.18 21.1897C17.37 21.1497 18.73 20.7097 19.46 19.8197C20.11 19.0297 20.37 17.7797 20.32 15.6597L20.2 9.48969C20.1 5.12969 18.64 4.26969 15.8 4.16969Z" />
</svg>

<?xml version="1.0" encoding="UTF-8"?>
<svg width="24" height="24" viewBox="0 0 24 24" xmlns="http://www.w3.org/2000/svg">
 <path d="m9.5601 18.75c-0.41 0-0.75-0.34-0.75-0.75v-5c0-0.41 0.34-0.75 0.75-0.75s0.75004 0.34 0.75004 0.75v5c0 0.41-0.34004 0.75-0.75004 0.75z"/>
 <path d="m12 16.25h-5c-0.41 0-0.75-0.34-0.75-0.75s0.34-0.75 0.75-0.75h5c0.41 0 0.75 0.34 0.75 0.75s-0.34 0.75-0.75 0.75z"/>
 <path d="m8 5.75c-0.41 0-0.75-0.34-0.75-0.75v-3c0-0.41 0.34-0.75 0.75-0.75s0.75 0.34 0.75 0.75v3c0 0.41-0.34 0.75-0.75 0.75z"/>
 <path d="m16 5.75c-0.41 0-0.75-0.34-0.75-0.75v-3c0-0.41 0.34-0.75 0.75-0.75s0.75 0.34 0.75 0.75v3c0 0.41-0.34 0.75-0.75 0.75z"/>
 <path d="m8.85 22.81c-2.47 0-4.1-0.54-5.12-1.7-1.18-1.33-1.37-3.32-1.41-5.09l-0.12999-6.17c-0.1-4.73 1.47-6.7 5.57-7.01l8.04-0.16h0.04c4.11 0.14 5.75 2.04 5.85 6.78l0.12 6.17c0.04 1.77-0.08 3.77-1.2 5.14-1.02 1.25-2.74 1.86-5.41 1.92l-6 0.12h-0.34999zm6.95-18.64-7.97 0.16c-2.8 0.22-4.23 1.12-4.14 5.49l0.12999 6.17c0.04 2.12 0.35 3.36 1.03 4.13 0.76 0.86 2.13 1.24 4.33 1.19l6-0.12c2.19-0.04 3.55-0.48 4.28-1.37 0.65-0.79 0.91-2.04 0.86-4.16l-0.12-6.17c-0.1-4.36-1.56-5.22-4.4-5.32z"/>
</svg>
